X: 18
M:4/4
L:1/8
K:G
ecAc ecAc | edef gage | dBGB dBGB |
dBdg f2df | afge fdgB | A/A/A Bd e2e ::
e | dgBg dgBg | dgBg fedf |
eaca eaca | ecef gage | dgBg dgBg |
dgBg fedf | afge fdgB | A/A/A Bd e2e :|


